X:1
T:Title
%%score { ( 1 5 ) | ( 2 3 4 ) }
L:1/8
Q:1/4=90
M:6/8
K:Bb
V:1 treble nm="Grand Piano"
V:5 treble 
V:2 bass 
V:3 bass 
V:4 bass 
V:1
 [Fd]cB G2 B | [DF]6 | [Fd]cB G2 B | [A,Ec]6 | z3 .B3 | BcB B2 F | =E-[E-A][EB] d2 c | %7
w: A.~H.~Ackley * * * *|||||||
 B2- [EB-] [DB]3 | [DF]6 | [EF]6 | cBA _A=AE | E2 D .D3 | [DF]6[K:bass] | z2 D [FA]3 | %14
w: |||||||
 [C=EG][G,CE][B,DE] [A,CE]2 [G,B,E] | [A,E]6 | [DF]6 | [EF]2- [G,E-F-] [G,E-F-]2 [F,EF] | %18
w: ||||
 cBA _A=AE | E2 D .D3 | ._D3 z3 | [DF]2- [G,D-F-] [G,D-F-]2 [F,DF] | %22
w: ||||
 FFF F2 F[Q:1/4=87][Q:1/4=84][Q:1/4=82][Q:1/4=79][Q:1/4=76][Q:1/4=73][Q:1/4=70] | [DF]2 ^F .=F3 |] %24
w: ||
V:2
 z3 D3 | z6 | .B,3 .B,3 | F,,F,^F, =F,E,C, | z cB G,2 B, | [^F,E]3 [=F,D]2 [D,B,] | z A,G, A,2 F, | %7
 F,2 ^F, .=F,3 | z2 G, G,2 F, | C,6 | [F,EF][F,DF][F,CF] [F,=B,F][F,CF][F,A,C] | %11
 [B,,G,B,]2 [B,,F,B,] .[B,,F,B,]3 | .F,3 z3 | .[A,C]3 D2 C | C,C,C, C,2 C, | z3 .F,3 | %16
 z2 G, G,2 F, | C,6 | [F,EF][F,DF][F,CF] [F,=B,F][F,CF][F,A,C] | [B,,G,B,]2 [B,,F,B,] .[B,,F,B,]3 | %20
 z2 E E2 _D | B,,6 | [F,B,D][F,B,D][F,B,D] [F,B,E]2 [F,A,E] | z2 E .D3 |] %24
V:3
 B,-[B,E][F,D] B,2 F, | B,2 F, B,2 F, | z E[F,D] D2- [F,D] | x6 | B,,6- | B,,6 | C,3 [F,,E]3 | %7
 B,,6 | B,,6 | x6 | x6 | x6 | B,,6 | C,6 | x6 | F,,6 | B,,6 | x6 | x6 | x6 | ^F,,6 | x6 | x6 | %23
 [B,,B,]6 |] %24
V:4
 B,,6- | B,,6- | B,,6 | x6 | x6 | x6 | x6 | x6 | x6 | x6 | x6 | x6 | x6 | x6 | x6 | x6 | x6 | x6 | %18
 x6 | x6 | x6 | x6 | x6 | x6 |] %24
V:5
 x6 | x6 | x6 | x6 | .[_A,DB]3 E2- [EG] | x6 | .[B,G]3 z3 | .D3 z3 | .F,3 z3 | F,2 G, G,2 F, | x6 | %11
 x6 | z2[K:bass] G, G,2 F, | F3 z3 | x6 | C3 z3 | .F,3 z3 | .F,3 z3 | x6 | x6 | [^F,B,]6 | %21
 .F,3 z3 | x6 | x6 |] %24

